src/v2/sources/favicon.svg

<?xml version="1.0" encoding="UTF-8" standalone="no"?>
<svg
   viewBox="0 0 118.724 118.724"
   version="1.1"
   id="svg9"
   sodipodi:docname="favicon.svg"
   inkscape:version="1.3.2 (091e20e, 2023-11-25)"
   width="118.724"
   height="118.724"
   inkscape:export-filename="favicon.png"
   inkscape:export-xdpi="146.55867"
   inkscape:export-ydpi="146.55867"
   xmlns:inkscape="http://www.inkscape.org/namespaces/inkscape"
   xmlns:sodipodi="http://sodipodi.sourceforge.net/DTD/sodipodi-0.dtd"
   xmlns:xlink="http://www.w3.org/1999/xlink"
   xmlns="http://www.w3.org/2000/svg"
   xmlns:svg="http://www.w3.org/2000/svg">
  <defs
     id="defs9">
    <clipPath
       clipPathUnits="userSpaceOnUse"
       id="clipPath22">
      <use
         x="0"
         y="0"
         xlink:href="#g21"
         id="use22" />
    </clipPath>
  </defs>
  <sodipodi:namedview
     id="namedview9"
     pagecolor="#ffffff"
     bordercolor="#000000"
     borderopacity="0.25"
     inkscape:showpageshadow="2"
     inkscape:pageopacity="0.0"
     inkscape:pagecheckerboard="0"
     inkscape:deskcolor="#d1d1d1"
     inkscape:zoom="4.4377765"
     inkscape:cx="57.573877"
     inkscape:cy="43.490247"
     inkscape:window-width="1408"
     inkscape:window-height="1179"
     inkscape:window-x="48"
     inkscape:window-y="101"
     inkscape:window-maximized="0"
     inkscape:current-layer="svg9"
     inkscape:export-bgcolor="#ffffff8e" />
  <path
     d="m 37.294922,88.373993 0.01367,-57.705078 h -12 l 0.01758,46.818359 a 42.866245,43.226017 0 0 0 11.96875,10.886719 z"
     style="fill:#00aa00;stroke-width:1.53689"
     id="path21" />
  <path
     d="m 56.019531,94.393524 0.0098,-49.712891 h -12 l 0.01953,46.980469 a 42.866245,43.226017 0 0 0 11.97067,2.732422 z"
     style="fill:#00aa00;stroke-width:1.47394"
     id="path19" />
  <path
     d="M 74.748047,91.645477 74.75,35.475555 h -12 l 0.002,58.916016 a 42.866245,43.226017 0 0 0 11.996094,-2.746094 z"
     style="fill:#00aa00;stroke-width:1.44491"
     id="path17" />
  <g
     id="g22"
     clip-path="url(#clipPath22)"
     transform="translate(0,-0.35647576)">
    <g
       inkscape:label="Clip"
       id="g21">
      <path
         d="M 92.669922,24.560547 H 81.46875 v 64.166015 a 42.866245,43.226017 0 0 0 12,-10.939453 v -52.21289 a 42.866245,43.226017 0 0 0 -0.798828,-1.013672 z"
         style="fill:#00aa00;stroke-width:1.27622"
         id="path13" />
    </g>
  </g>
  <path
     d="m 92.669922,24.204071 a 42.866245,43.226017 0 0 1 0.798828,1.013672 v -1.013672 z"
     style="fill:#00aa00;stroke-width:1.27622"
     id="path12" />
  <path
     fill="#6c0000"
     d="m 69.076,0.46852424 -0.004,0.004 a 59.362,59.362 0 0 1 0.043,0.008 45.694,48.77 0 0 0 -0.04,-0.011 z m 0.039,0.012 a 45.694,48.77 0 0 1 35.941,47.61099976 45.694,48.77 0 0 1 -39.253,48.229 45.694,48.77 0 0 1 -3.624,0.44 37.855,37.855 0 0 1 -2.808,0.109 37.855,37.855 0 0 1 -0.111,-0.008 37.855,37.855 0 0 1 -3.834,-0.203 45.694,48.77 0 0 1 -41.762,-48.56 A 45.694,48.77 0 0 1 49.35,0.56952424 59.362,59.362 0 0 0 0,59.015524 59.362,59.362 0 0 0 59.367,118.37352 59.362,59.362 0 0 0 118.724,59.015524 59.362,59.362 0 0 0 69.115,0.48052424 Z"
     id="path5"
     style="fill:#770000;fill-opacity:1" />
  <rect
     style="opacity:0.99;fill:#99ddfe;fill-opacity:1;stroke-width:1.83685"
     id="rect64"
     width="0.42220694"
     height="0.0089831268"
     x="39.588638"
     y="50.299374" />
</svg>

<?xml version="1.0" encoding="UTF-8" standalone="no"?>
<svg xmlns="http://www.w3.org/2000/svg" viewBox="0 0 118.724 118.724">
  <path fill="#00aa00" d="M37.294922,88.373993L37.308592,30.668915H25.308591999999997L25.326171999999996,77.487274A42.866245,43.226017,0,0,0,37.294922,88.373993Z"/>
  <path fill="#00aa00" d="M56.019531,94.393524L56.029331,44.680633H44.029331L44.048861,91.661102A42.866245,43.226017,0,0,0,56.019531,94.393524Z"/>
  <path fill="#00aa00" d="M74.748047,91.645477L74.75,35.475555H62.75L62.752,94.391571A42.866245,43.226017,0,0,0,74.74809400000001,91.645477Z"/>
  <path fill="#00aa00" d="M81.46875,24.560547V88.726562C86.121007,85.881113,90.19351,82.168533,93.46875,77.787109V24.560547Z"/>
  <path fill="#700000" d="
    M 69.076, 0.46852424
    L 69.07199999999999, 0.47252424
    A 59.362, 59.362, 0, 0, 1, 69.115, 0.48052424
    A 45.694, 48.77, 0, 0, 0, 69.07499999999999, 0.46952424Z
    M 69.115, 0.48052424A45.694, 48.77, 0, 0, 1,105.056, 48.091524
    A 45.694, 48.77, 0, 0, 1, 65.803, 96.320524A45.694, 48.77, 0, 0, 1, 62.178999999999995, 96.760524
    A 37.855, 37.855, 0, 0, 1, 59.370999999999995, 96.869524A37.855, 37.855, 0, 0, 1, 59.26, 96.861524
    A 37.855, 37.855, 0, 0, 1, 55.425999999999995, 96.658524
    A 45.694, 48.77, 0, 0, 1, 13.663999999999994, 48.098524A45.694, 48.77, 0, 0, 1, 49.35, 0.56952424
    A 59.362, 59.362, 0, 0, 0, 0, 59.015524
    A 59.362, 59.362, 0, 0, 0, 59.367, 118.37352
    A 59.362, 59.362, 0, 0, 0, 118.724, 59.015524
    A 59.362, 59.362, 0, 0, 0, 69.115, 0.48052424
    Z
  "/>
</svg>
